X: 31061
T: Paddy Cronin's
R: reel
M: 4/4
K: Edorian
|:JBEED EFGA|B2eB dBA=c|BEED EGFE|DFAF DFAF|
BEED EFGA|B2eB dBAF|GEFE DBB_B|1 BFAF ~E2EA:|2 BFAF E3A||
|:Beee fBeB|dBAF BFAF|Beee fBeB|dBAF FEFA|
Beee fBeB|dBAF BFAF|G2GF EBB_B|1 BFAF ~E3A:|2 BFAF E3A||

